X:1
T: Don't be teasing
C:
R:Jig
Q:180
K:D
M:6/8
L:1/16
B2|A2F2D2 D2F2D2|A2F2A2 d2c2B2|A2F2D2 D2F2D2|E2F2G2 B2c2d2|A2F2D2 D2F2D2|A2F2A2 d4A2|Bcd2B2 c2e2c2|d6 d4B2|
A2F2D2 D2F2D2|A2F2A2 d2c2B2|A2F2D2 D2F2D2|E2F2G2 B2c2d2|A2F2D2 D2F2D2|A2F2A2 d4A2|Bcd2B2 c2e2c2|d6 d4g2|
a2f2d2 d2c2d2|B2c2d2 A2F2D2|a2f2d2 d2c2d2|B2c2d2 e4f2|a2f2d2 d2c2d2|B2e2d2 c2B2A2|B2g2f2 e2c2A2|d6 d4g2|
a2f2d2 d2c2d2|B2c2d2 A2F2D2|a2f2d2 d2c2d2|B2c2d2 e4f2|a2f2d2 d2c2d2|B2e2d2 c2B2A2|B2g2f2 e2c2A2|d6 d4||
